assets/web/icons/public.svg

<svg width="24" height="24" viewBox="0 0 24 24" fill="none" xmlns="http://www.w3.org/2000/svg">
<path d="M12 22C10.6167 22 9.31667 21.7375 8.1 21.2125C6.88333 20.6875 5.825 19.975 4.925 19.075C4.025 18.175 3.3125 17.1167 2.7875 15.9C2.2625 14.6833 2 13.3833 2 12C2 10.6167 2.2625 9.31667 2.7875 8.1C3.3125 6.88333 4.025 5.825 4.925 4.925C5.825 4.025 6.88333 3.3125 8.1 2.7875C9.31667 2.2625 10.6167 2 12 2C13.3833 2 14.6833 2.2625 15.9 2.7875C17.1167 3.3125 18.175 4.025 19.075 4.925C19.975 5.825 20.6875 6.88333 21.2125 8.1C21.7375 9.31667 22 10.6167 22 12C22 13.3833 21.7375 14.6833 21.2125 15.9C20.6875 17.1167 19.975 18.175 19.075 19.075C18.175 19.975 17.1167 20.6875 15.9 21.2125C14.6833 21.7375 13.3833 22 12 22ZM11 19.95V18C10.45 18 9.97917 17.8042 9.5875 17.4125C9.19583 17.0208 9 16.55 9 16V15L4.2 10.2C4.15 10.5 4.10417 10.8 4.0625 11.1C4.02083 11.4 4 11.7 4 12C4 14.0167 4.6625 15.7833 5.9875 17.3C7.3125 18.8167 8.98333 19.7 11 19.95ZM17.9 17.4C18.2333 17.0333 18.5333 16.6375 18.8 16.2125C19.0667 15.7875 19.2875 15.3458 19.4625 14.8875C19.6375 14.4292 19.7708 13.9583 19.8625 13.475C19.9542 12.9917 20 12.5 20 12C20 10.3667 19.5458 8.875 18.6375 7.525C17.7292 6.175 16.5167 5.2 15 4.6V5C15 5.55 14.8042 6.02083 14.4125 6.4125C14.0208 6.80417 13.55 7 13 7H11V9C11 9.28333 10.9042 9.52083 10.7125 9.7125C10.5208 9.90417 10.2833 10 10 10H8V12H14C14.2833 12 14.5208 12.0958 14.7125 12.2875C14.9042 12.4792 15 12.7167 15 13V16H16C16.4333 16 16.825 16.1292 17.175 16.3875C17.525 16.6458 17.7667 16.9833 17.9 17.4Z" fill="currentColor"/>
</svg>

<svg xmlns="http://www.w3.org/2000/svg" width="24" height="24" fill="currentColor" viewBox="0 0 24 24">
  <path d="M12 22a9.738 9.738 0 0 1-3.9-.788 10.099 10.099 0 0 1-3.175-2.137c-.9-.9-1.612-1.958-2.137-3.175A9.738 9.738 0 0 1 2 12a9.74 9.74 0 0 1 .788-3.9 10.099 10.099 0 0 1 2.137-3.175c.9-.9 1.958-1.612 3.175-2.137A9.738 9.738 0 0 1 12 2a9.74 9.74 0 0 1 3.9.788 10.098 10.098 0 0 1 3.175 2.137c.9.9 1.613 1.958 2.137 3.175A9.738 9.738 0 0 1 22 12a9.738 9.738 0 0 1-.788 3.9 10.098 10.098 0 0 1-2.137 3.175c-.9.9-1.958 1.613-3.175 2.137A9.738 9.738 0 0 1 12 22Zm-1-2.05V18c-.55 0-1.02-.196-1.412-.587A1.926 1.926 0 0 1 9 16v-1l-4.8-4.8c-.05.3-.096.6-.138.9-.041.3-.062.6-.062.9 0 2.017.662 3.783 1.987 5.3 1.325 1.517 2.996 2.4 5.013 2.65Zm6.9-2.55c.333-.367.633-.762.9-1.188a7.45 7.45 0 0 0 .662-1.325c.175-.458.309-.929.4-1.412.092-.483.138-.975.138-1.475a7.845 7.845 0 0 0-1.363-4.475A7.701 7.701 0 0 0 15 4.6V5c0 .55-.196 1.02-.588 1.412A1.926 1.926 0 0 1 13 7h-2v2c0 .283-.096.52-.287.713A.968.968 0 0 1 10 10H8v2h6c.283 0 .52.096.713.287.191.192.287.43.287.713v3h1c.433 0 .825.13 1.175.387.35.259.592.596.725 1.013Z"/>
</svg>
